apps/game/public/icon.svg

<svg xmlns="http://www.w3.org/2000/svg" width="512" height="512" viewBox="0 0 512 512"><defs><linearGradient id="a" x1="0%" x2="100%" y1="0%" y2="100%"><stop offset="0%" style="stop-color:#764ba2;stop-opacity:1"/><stop offset="100%" style="stop-color:#667eea;stop-opacity:1"/></linearGradient><filter id="b"><feDropShadow dx="0" dy="4" flood-opacity=".3" stdDeviation="8"/></filter></defs><circle cx="256" cy="256" r="240" fill="url(#a)"/><g filter="url(#b)"><path fill="none" stroke="#fff" stroke-linecap="round" stroke-linejoin="round" stroke-width="32" d="M256 120c54 0 84 30 84 70 0 30-15 50-50 70l-20 12c-10 6-14 13-14 23v15"/><circle cx="256" cy="360" r="20" fill="#fff"/></g><path fill="gold" d="m380 180-40 60h30l-40 70 30-50h-20Z" filter="url(#b)" opacity=".9"/></svg>

<svg width="512" height="512" viewBox="0 0 512 512" xmlns="http://www.w3.org/2000/svg">
  <!-- Background gradient -->
  <defs>
    <linearGradient id="bgGradient" x1="0%" y1="0%" x2="100%" y2="100%">
      <stop offset="0%" style="stop-color:#764ba2;stop-opacity:1" />
      <stop offset="100%" style="stop-color:#667eea;stop-opacity:1" />
    </linearGradient>
    <filter id="shadow">
      <feDropShadow dx="0" dy="4" stdDeviation="8" flood-opacity="0.3"/>
    </filter>
  </defs>

  <!-- Background circle -->
  <circle cx="256" cy="256" r="240" fill="url(#bgGradient)"/>

  <!-- Question mark symbol -->
  <g filter="url(#shadow)">
    <!-- Question mark top curve -->
    <path d="M 256 120
             C 310 120, 340 150, 340 190
             C 340 220, 325 240, 290 260
             L 270 272
             C 260 278, 256 285, 256 295
             L 256 310"
          fill="none" stroke="white" stroke-width="32" stroke-linecap="round" stroke-linejoin="round"/>
    <!-- Question mark dot -->
    <circle cx="256" cy="360" r="20" fill="white"/>
  </g>

  <!-- Lightning bolt accent (for "Rush") -->
  <path d="M 380 180 L 340 240 L 370 240 L 330 310 L 360 260 L 340 260 Z"
        fill="#FFD700" opacity="0.9" filter="url(#shadow)"/>
</svg>
